!!!COM: Vivaldi, Antonio Lucio
!!!CDT: 1678/03/04-1741/08/28
!!!OPR: 12 Sonatas for Violin and Basso continuo
!!!OTL: Sonata in F minor, op. @{OPS}, no. @{ONM} (@{SCT})
!!!OPS: 2
!!!ONM: 10
!!!OMV: 2. Allemanda
!!!SCT: RV 21
!!!SCA: Antonio Vivaldi: Thematisch-systematisches Verzeichnis seiner Werke (Ryom-Verzeichnis)
!!!OMD: Allegro
!!!key: f
**kern	**fb	**kern
*part2	*	*part1
*staff2	*	*staff1
*ICklav	*	*ICstr
*Icemba	*	*Ivioln
*I"Basso continuo	*	*I"Violino
*I'bc	*	*I'v
*>[A,A,B,B1,B,B2]	*>[A,A,B,B1,B,B2]	*>[A,A,B,B1,B,B2]
*>norep[A,B,B2]	*>norep[A,B,B2]	*>norep[A,B,B2]
*>A	*>A	*>A
*clefF4	*	*clefG2
*k[b-e-a-d-]	*	*k[b-e-a-d-]
*f:	*	*f:
*M4/4	*	*M4/4
*met(c)	*	*met(c)
*MM72	*	*MM72
16r	.	16cc\
=1	=1	=1
8F\L	.	(16.a-y/LL
.	.	32cc/k)
8F\J	.	(16.f/
.	.	32cc/JJk)
8F\L	.	(16.ff\LL
.	.	32aa-y\k)
8F\J	.	(16.gg\
.	.	32ff\JJk)
8C/L	n	(16.een\LL
.	.	32gg\k)
8C/J	.	(16.cc\
.	.	32ee\JJk)
8C/L	7 n	(16.b-y\LL
.	.	32bb-y\k)
8C/J	6	(16.aa-y\
.	.	32gg\JJk)
=2	=2	=2
8F\L	5	(8.aa-y\L
8F\J	.	.
.	.	16gg\Jk)
8F\L	6	(16.ff\LL
.	.	32ee-y\k)
8F\J	.	(16.dd-y\
.	.	32cc\JJk)
8G\L	7	(16.b-y\LL
.	.	32dd-y\k)
8G\J	.	(16.g\
.	.	32b-y\JJk)
8C/L	n	(16.en/LL
.	.	32b-y/k)
8C/J	.	(16.cc/
.	.	32b-y/JJk)
!!LO:LB:g=original
=3	=3	=3
8F\L	.	(16.a-y/LL
.	.	32cc/k)
8F\J	.	(16.f/
.	.	32a-y/JJk)
8BB-y/L	5	(16.d-y/LL
.	.	32a-y/k)
8BB-y/J	6	(16.g/
.	.	32f/JJk)
8C/L	n	(16.en/LL
.	.	32g/k)
8C/J	.	(16.c/
.	.	32e/JJk)
8En\L	5	(16.B-y/LL
.	.	32b-y/k)
8E\J	.	(16.a-y/
.	.	32g/JJk)
=4	=4	=4
8F\L	.	(16.a-y/LL
.	.	32f/k)
8F\J	.	(16.a-y/
.	.	32cc/JJk)
8F\L	.	(16.ff\LL
.	.	32aa-y\k)
8F\J	6nr	(16.ff\
.	.	32ddn\JJk)
8G\L	n	(16.bn\LL
.	.	32dd\k)
8G\J	.	(16.g\
.	.	32b\JJk)
8BBn/L	6	(16.f\LL
.	.	32ff\k)
8BB/J	.	(16.ee-y\
.	.	32dd\JJk)
=5	=5	=5
8C/L	5	(8.ee-y\L
8C/J	.	.
.	.	16ddn\Jk)
8C/L	.	(16.cc/LL
.	.	32b-y/k)
8C/J	6	(16.a-y/
.	.	32g/JJk)
8Dn\L	5	(16.f/LL
.	.	32a-y/k)
8D\J	.	(16.dn/
.	.	32f/JJk)
8GG/L	n	(16.Bn/LL
.	.	32f/k)
8GG/J	.	(16.G/
.	.	32f/JJk)
!!LO:LB:g=original
=6	=6	=6
8C/L	.	(16.c/LL
.	.	32e-y/k)
8C/J	.	(16.g/
.	.	32cc/JJk)
8C/L	.	(16.e-y/LL
.	.	32g/k)
8C/J	.	(16.cc/
.	.	32b-y/JJk)
8F\L	5	(16.f\LL
.	.	32a-y\k)
8F\J	.	(16.cc\
.	.	32ff\JJk)
8F\L	.	(16.aa-y\LL
.	.	32ff\k)
8F\J	6nr	(16.ddn\
.	.	32bn\JJk)
=7	=7	=7
8G\L	n	(16.g/LL
.	.	32bn/k)
16E-y\L	6	(16.cc/
16F\JJ	.	.
.	.	32e-y/JJk)
8G/L	n	(16G/LL
.	.	16d/
8GG/J	.	16.cc/)
.	.	32b/JJk
[4C/	.	[4cc\
8.C/]	.	8.cc\]
=:|!|:	=:|!|:	=:|!|:
*>B	*>B	*>B
16r	.	16cc\
=8	=8	=8
8C/L	.	(16.g/LL
.	.	32cc/k)
8C/J	.	(16.e-y/
.	.	32g/JJk)
8C/L	.	(16.cc\LL
.	.	32ee-y\k)
8C/J	4 2nr	(16.ddn\
.	.	32cc\JJk)
8GG/L	n	(16.bn\LL
.	.	32dd\k)
8GG/J	.	(16.g\
.	.	32b\JJk)
8GG/L	7	(16.f\LL
.	.	32ff\k)
8GG/J	.	(16.ee-y\
.	.	32dd\JJk)
!!LO:LB:g=original
=9	=9	=9
8C/L	5	(8.ee-y\L
8C/J	.	.
.	.	16ddn\Jk)
8C/L	.	(16.cc/LL
.	.	32b-y/k)
8C/J	6nr	(16.an/
.	.	32g/JJk)
8Dn\L	#	(16.f#X/LL
.	.	32a/k)
8D\J	.	(16.dn/
.	.	32f#y/JJk)
8F#X\L	5	(16.c/LL
.	.	32f#y/k)
8F#y\J	.	(16.a/
.	.	32cc/JJk)
=10	=10	=10
8G\L	5nr	(16.G/LL
.	.	32B-y/k)
8G\J	.	(16.dn/
.	.	32g/JJk)
8G\L	.	(16.b-y\LL
.	.	32ddn\k)
8G\J	6nr	(16.gg\
.	.	32bb-y\JJk)
8An\L	#	(16.cc#X\LL
.	.	32een\k)
8A\J	.	(16.an\
.	.	32cc#y\JJk)
8c#X\L	5	(16.g\LL
.	.	32cc#y\k)
8c#y\J	.	(16.ee\
.	.	32gg\JJk)
=11	=11	=11
8dn\L	5nr	(16.dn/LL
.	.	32f/k)
8Dn\J	.	(16.an/
.	.	32ddn/JJk)
8D\L	.	(16.f\LL
.	.	32a\k)
8D\J	.	(16.dd\
.	.	32ff\JJk)
8D\L	.	(16.a\LL
.	.	32dd\k)
8D\J	.	(16.ff\
.	.	32aan\JJk)
8D\L	.	(16.dd\LL
.	.	32ff\k)
8D\J	.	(16.aa\
.	.	32dddn\JJk)
!!LO:LB:g=original
=12	=12	=12
8AAn/L	#	(16.ccc#X\LL
.	.	32aan\k)
8AA/J	.	(16.een\
.	.	32aa\JJk)
8C#X/L	6nr	(16.an\LL
.	.	32cc#X\k)
8C#y/J	.	(16.ee\
.	.	32gg\JJk)
8Dn\L	5nr	(16.ff\LL
.	.	32ddn\k)
8D\J	.	(16.a\
.	.	32dd\JJk)
8F#X\L	6nr	(16.dn/LL
.	.	32f#X/k)
8F#y\J	.	(16.a/
.	.	32dd/JJk)
=13	=13	=13
8G\L	5nr	(16.b-y/LL
.	.	32g/k)
8G\J	.	(16.dn/
.	.	32g/JJk)
8BBn/L	6	(16.G/LL
.	.	32Bn/k)
8BB/J	.	(16.d/
.	.	32g/JJk)
8C/L	n	(16.e/LL
.	.	32g/k)
8C/J	.	(16.cc/
.	.	32ee/JJk)
8En\L	6	(16.gg\LL
.	.	32cc\k)
8E\J	5	(16.b-X\
.	.	32gg\JJk)
!!LO:LB:g=original
=14	=14	=14
8F\L	.	(16.aa-y\LL
.	.	32ff\k)
8F\J	.	(16.cc\
.	.	32aa-y\JJk)
8C/L	n	(16.gg\LL
.	.	32een\k)
8C/J	.	(16.cc\
.	.	32gg\JJk)
8F\L	.	(16.aa-y\LL
.	.	32ff\k)
8F\J	.	(16.cc\
.	.	32aa-y\JJk)
8C/L	n	(16.gg\LL
.	.	32ee\k)
8C/J	.	(16.cc\
.	.	32gg\JJk)
=15	=15	=15
8F\L	.	(16.aa-y\LL
.	.	32ff\k)
8F\J	.	(16.cc\
.	.	32aa-y\JJk)
8G\L	7	(16.bb-y\LL
.	.	32gg\k)
8G\J	6nr	(16.een\
.	.	32bb-y\JJk)
8A-y\L	6	(16.ccc\LL
.	.	32aa-y\k)
8A-y\J	.	(16.ff\
.	.	32ccc\JJk)
8B-y\L	3	(16.ddd-y\LL
.	.	32bb-y\k)
8B-y\J	.	(16.gg\
.	.	32ee\JJk)
=16	=16	=16
8c\L	n	(16.cc\LL
.	.	32een\k)
16A-y\L	6	(16.ff\
16B-y\JJ	.	.
.	.	32a-y\JJk)
8c\L	n	(16c/LL
.	.	16g/
8C\J	.	16.ff/)
.	.	32ee/JJk
8F\L	.	16.ff\LL
.	.	32ff\k
8F\J	.	(16.ee\
.	.	32ff\JJk)
8En\L	6	(16.gg\LL
.	.	32ff\k)
8E\J	.	(16.ee\
.	.	32ff\JJk)
!!LO:LB:g=original
=17	=17	=17
8F\L	.	(16.aa-y\LL
.	.	32ff\k)
8F\J	.	(16.een\
.	.	32ff\JJk)
8G\L	7	(16.bb-y\LL
.	.	32ff\k)
8G\J	6nr	(16.ee\
.	.	32ff\JJk)
8A-y\L	6	(16.ccc\LL
.	.	32ff\k)
8A-y\J	.	(16.ee\
.	.	32ff\JJk)
8B-y\L	5	(16.ddd-y\LL
.	.	32bb-y\k)
8B-y\J	6	(16.gg\
.	.	32ee\JJk)
=18	=18	=18
*>B1	*>B1	*>B1
8c\L	n	(16.cc\LL
.	.	32een\k)
16A-y\L	6	(16.ff\
16B-y\JJ	.	.
.	.	32a-y\JJk)
8c\L	5 4	(16c/LL
.	.	16g/
8C\J	n	16.ff/)
.	.	32ee/JJk
[4F\	.	[4ff\
8.F\]	.	8.ff\]
=18:|!	=18:|!	=18:|!
*>B2	*>B2	*>B2
8c\L	n	(16.cc\LL
.	.	32een\k)
16A-y\L	6	(16.ff\
16B-y\JJ	.	.
.	.	32a-y\JJk)
8c\L	5 4	(16c/LL
.	.	16g/
8C\J	n	16.ff/)
.	.	32ee/JJk
2F\;	.	2ff\;
==	==	==
*-	*-	*-
!!!SMS: RV 21 / Estienne Roger, Amsterdam [facs.]
!!!ENC: Fran Bennion; rev. 04/21 E. Correia
!!!END: 2004/12/20
!!!ONB: Converted from MuseData with musedata2hum on Sat May 11 12:07:53 2024
!!!YEM: (C) 2004, 2004 Center for Computer Assisted Research in the Humanities.
!!!system-decoration: [(s1,s2)]
!!!URL-info: https://wiki.ccarh.org/wiki/MuseData:_Antonio_Vivaldi#Op._2:_Sonate_a_violino_e_basso_per_il_cembalo
!!!URL-pdf: https://pdf.musedata.org/vivaldi-op02-no10.pdf#page=2 MuseData edition
!!!URL-pdf: http://conquest.imslp.info/files/imglnks/usimg/b/b7/IMSLP99075-PMLP183164-Vivaldi_-_Sonatas_Op2.pdf#page=36 Estienne Roger Amsterdam: Estienne Roger, No.2, n.d.[1711].
!!!URL-youtube: https://www.youtube.com/watch?v=SiijZmW9jKM&t=4883s L'Arte dell'Arco
!!!title: @{OTL}, mov. @{OMV}
!!!filter-chint: chint -mid
!!!EEV: 2024/05/11
!!!source-file: https://bitbucket.org/musedata/vivaldi/src/master/roger/op2/no10/stage2/02/01
!!!source-file: https://bitbucket.org/musedata/vivaldi/src/master/roger/op2/no10/stage2/02/02
